X:36
T:Polska i Dm ur Pontus Schwalbes notbok
B:Pontus Schwalbes notbok, nr 36
R:Polska
O:Björkvik, Södermanland
M:3/4
L:1/16
Z:Nils L
K:Dm
d2>f2 efed ^c2A2 | d2>f2 efed ^c2A2 | d2f2 e2g2 f2a2 | g2b2 a4 a4 :: 
f2g2 f4 c4 | c2Ac B2GB A4 | g2g2 a4 c4 | c2Ac B2GB A4 | 
F2F2 F2F2 F2F2 | GFED E2E2 E2E2 | D2E2 FEFG A2F2 | E2^C2 D4 D4 :|

